src/images/production.svg

<svg viewBox="0 0 122.6 6.88" xmlns="http://www.w3.org/2000/svg"><g fill="#fff"><path d="m.1 6.78a.09.09 0 0 1 -.1-.1v-6.48a.09.09 0 0 1 .1-.1h2.23a1.83 1.83 0 0 1 2.05 1.9 1.83 1.83 0 0 1 -2.05 1.89h-1.71a.05.05 0 0 0 -.06.06v2.74a.09.09 0 0 1 -.1.1zm3.72-4.78c0-.86-.53-1.37-1.51-1.37h-1.69a.05.05 0 0 0 -.06.06v2.6a.05.05 0 0 0 .06.06h1.69c.98 0 1.51-.5 1.51-1.35z"/><path d="m17.35 6.78c-.06 0-.09 0-.12-.09l-1.41-2.9h-1.82a.05.05 0 0 0 -.06.06v2.84a.09.09 0 0 1 -.1.1h-.36a.09.09 0 0 1 -.1-.1v-6.49a.09.09 0 0 1 .1-.1h2.24a1.81 1.81 0 0 1 2 1.85 1.7 1.7 0 0 1 -1.32 1.77l1.46 3v.11zm-.15-4.83c0-.84-.53-1.32-1.48-1.32h-1.72a.05.05 0 0 0 0 .06v2.52a.05.05 0 0 0 .06.06h1.71c.9 0 1.43-.48 1.43-1.32z"/><path d="m27 5.38a5.88 5.88 0 0 1 -.2-1.94 5.88 5.88 0 0 1 .2-1.94 2.09 2.09 0 0 1 2.13-1.5 2.09 2.09 0 0 1 2.15 1.5 5.87 5.87 0 0 1 .2 1.94 5.87 5.87 0 0 1 -.2 1.94 2.09 2.09 0 0 1 -2.15 1.5 2.09 2.09 0 0 1 -2.13-1.5zm3.78-3.72a1.72 1.72 0 0 0 -3.23 0 5.78 5.78 0 0 0 -.17 1.78 5.77 5.77 0 0 0 .17 1.78 1.72 1.72 0 0 0 3.23 0 5.74 5.74 0 0 0 .17-1.78 5.76 5.76 0 0 0 -.21-1.78z"/><path d="m40.67.2a.09.09 0 0 1 .1-.1h2.09a2 2 0 0 1 2.14 1.36 6 6 0 0 1 .19 2 5.94 5.94 0 0 1 -.19 2 2 2 0 0 1 -2.13 1.36h-2.1a.09.09 0 0 1 -.1-.1zm.62 6.06h1.49a1.54 1.54 0 0 0 1.67-1 5.49 5.49 0 0 0 .16-1.8 5.5 5.5 0 0 0 -.16-1.8 1.54 1.54 0 0 0 -1.67-1h-1.49a.05.05 0 0 0 -.06.06v5.48s.02.05.06.05z"/><path d="m54.89 4.48c0 1.26.64 1.87 1.7 1.87s1.71-.61 1.71-1.87v-4.28a.09.09 0 0 1 .1-.1h.36a.09.09 0 0 1 .1.1v4.27a2.27 2.27 0 1 1 -4.53 0v-4.27a.09.09 0 0 1 .1-.1h.37a.09.09 0 0 1 .1.1z"/><path d="m68 3.44a6.3 6.3 0 0 1 .18-1.95 2 2 0 0 1 2.09-1.49 2.1 2.1 0 0 1 2 1.24.1.1 0 0 1 0 .13l-.32.16a.09.09 0 0 1 -.13 0 1.64 1.64 0 0 0 -1.53-1 1.52 1.52 0 0 0 -1.59 1.11 6 6 0 0 0 -.15 1.8 6 6 0 0 0 .15 1.8 1.52 1.52 0 0 0 1.57 1.11 1.64 1.64 0 0 0 1.53-1 .09.09 0 0 1 .13 0l.32.16a.09.09 0 0 1 0 .13 2.1 2.1 0 0 1 -2 1.24 2 2 0 0 1 -2.11-1.49 6.3 6.3 0 0 1 -.14-1.95z"/><path d="m83 6.78a.09.09 0 0 1 -.1-.1v-6a.05.05 0 0 0 -.06-.06h-1.94a.09.09 0 0 1 -.1-.1v-.32a.09.09 0 0 1 .1-.1h4.53a.09.09 0 0 1 .1.1v.33a.09.09 0 0 1 -.1.1h-1.92a.05.05 0 0 0 -.06.06v6a.09.09 0 0 1 -.1.1z"/><path d="m94.42.2a.09.09 0 0 1 .1-.1h.36a.09.09 0 0 1 .1.1v6.49a.09.09 0 0 1 -.1.1h-.36a.09.09 0 0 1 -.1-.1z"/><path d="m104.34 5.38a5.88 5.88 0 0 1 -.2-1.94 5.88 5.88 0 0 1 .2-1.94 2.3 2.3 0 0 1 4.32 0 5.87 5.87 0 0 1 .2 1.94 5.87 5.87 0 0 1 -.2 1.94 2.3 2.3 0 0 1 -4.32 0zm3.78-3.72a1.72 1.72 0 0 0 -3.23 0 5.78 5.78 0 0 0 -.17 1.78 5.77 5.77 0 0 0 .17 1.78 1.72 1.72 0 0 0 3.23 0 5.74 5.74 0 0 0 .17-1.78 5.75 5.75 0 0 0 -.17-1.78z"/><path d="m118.05.2a.09.09 0 0 1 .1-.1h.36a.17.17 0 0 1 .17.1l3.32 5.49v-5.49a.09.09 0 0 1 .1-.1h.36a.09.09 0 0 1 .1.1v6.49a.09.09 0 0 1 -.1.1h-.38a.18.18 0 0 1 -.17-.1l-3.3-5.5v5.5a.09.09 0 0 1 -.1.1h-.36a.09.09 0 0 1 -.1-.1z"/></g></svg>

<svg xmlns="http://www.w3.org/2000/svg" viewBox="0 0 122.6 6.88"><defs><style>.cls-1{fill:#fff;}</style></defs><title>production</title><g id="Layer_2" data-name="Layer 2"><g id="Layer_1-2" data-name="Layer 1"><path class="cls-1" d="M.1,6.78a.09.09,0,0,1-.1-.1V.2A.09.09,0,0,1,.1.1H2.33A1.83,1.83,0,0,1,4.38,2,1.83,1.83,0,0,1,2.33,3.89H.62a.05.05,0,0,0-.06.06V6.69a.09.09,0,0,1-.1.1ZM3.82,2c0-.86-.53-1.37-1.51-1.37H.62A.05.05,0,0,0,.56.69V3.29a.05.05,0,0,0,.06.06H2.31C3.29,3.35,3.82,2.85,3.82,2Z"/><path class="cls-1" d="M17.35,6.78c-.06,0-.09,0-.12-.09l-1.41-2.9H14a.05.05,0,0,0-.06.06V6.69a.09.09,0,0,1-.1.1h-.36a.09.09,0,0,1-.1-.1V.2a.09.09,0,0,1,.1-.1h2.24a1.81,1.81,0,0,1,2,1.85A1.7,1.7,0,0,1,16.4,3.72l1.46,3c0,.06,0,.11,0,.11ZM17.2,1.95c0-.84-.53-1.32-1.48-1.32H14A.05.05,0,0,0,14,.69V3.21a.05.05,0,0,0,.06.06h1.71C16.67,3.27,17.2,2.79,17.2,1.95Z"/><path class="cls-1" d="M27,5.38a5.88,5.88,0,0,1-.2-1.94A5.88,5.88,0,0,1,27,1.5,2.09,2.09,0,0,1,29.13,0a2.09,2.09,0,0,1,2.15,1.5,5.87,5.87,0,0,1,.2,1.94,5.87,5.87,0,0,1-.2,1.94,2.09,2.09,0,0,1-2.15,1.5A2.09,2.09,0,0,1,27,5.38Zm3.78-3.72a1.72,1.72,0,0,0-3.23,0,5.78,5.78,0,0,0-.17,1.78,5.77,5.77,0,0,0,.17,1.78,1.72,1.72,0,0,0,3.23,0,5.74,5.74,0,0,0,.17-1.78A5.76,5.76,0,0,0,30.74,1.66Z"/><path class="cls-1" d="M40.67.2a.09.09,0,0,1,.1-.1h2.09A2,2,0,0,1,45,1.46a6,6,0,0,1,.19,2,5.94,5.94,0,0,1-.19,2,2,2,0,0,1-2.13,1.36H40.77a.09.09,0,0,1-.1-.1Zm.62,6.06h1.49a1.54,1.54,0,0,0,1.67-1,5.49,5.49,0,0,0,.16-1.8,5.5,5.5,0,0,0-.16-1.8,1.54,1.54,0,0,0-1.67-1H41.29a.05.05,0,0,0-.06.06V6.2S41.25,6.25,41.29,6.25Z"/><path class="cls-1" d="M54.89,4.48c0,1.26.64,1.87,1.7,1.87s1.71-.61,1.71-1.87V.2a.09.09,0,0,1,.1-.1h.36a.09.09,0,0,1,.1.1V4.47a2.27,2.27,0,1,1-4.53,0V.2a.09.09,0,0,1,.1-.1h.37a.09.09,0,0,1,.1.1Z"/><path class="cls-1" d="M68,3.44a6.3,6.3,0,0,1,.18-1.95A2,2,0,0,1,70.27,0a2.1,2.1,0,0,1,2,1.24.1.1,0,0,1,0,.13l-.32.16a.09.09,0,0,1-.13,0,1.64,1.64,0,0,0-1.53-1A1.52,1.52,0,0,0,68.7,1.64a6,6,0,0,0-.15,1.8,6,6,0,0,0,.15,1.8,1.52,1.52,0,0,0,1.57,1.11,1.64,1.64,0,0,0,1.53-1,.09.09,0,0,1,.13,0l.32.16a.09.09,0,0,1,0,.13,2.1,2.1,0,0,1-2,1.24,2,2,0,0,1-2.11-1.49A6.3,6.3,0,0,1,68,3.44Z"/><path class="cls-1" d="M83,6.78a.09.09,0,0,1-.1-.1v-6a.05.05,0,0,0-.06-.06H80.9a.09.09,0,0,1-.1-.1V.2a.09.09,0,0,1,.1-.1h4.53a.09.09,0,0,1,.1.1V.53a.09.09,0,0,1-.1.1H83.51a.05.05,0,0,0-.06.06v6a.09.09,0,0,1-.1.1Z"/><path class="cls-1" d="M94.42.2a.09.09,0,0,1,.1-.1h.36a.09.09,0,0,1,.1.1V6.69a.09.09,0,0,1-.1.1h-.36a.09.09,0,0,1-.1-.1Z"/><path class="cls-1" d="M104.34,5.38a5.88,5.88,0,0,1-.2-1.94,5.88,5.88,0,0,1,.2-1.94,2.3,2.3,0,0,1,4.32,0,5.87,5.87,0,0,1,.2,1.94,5.87,5.87,0,0,1-.2,1.94,2.3,2.3,0,0,1-4.32,0Zm3.78-3.72a1.72,1.72,0,0,0-3.23,0,5.78,5.78,0,0,0-.17,1.78,5.77,5.77,0,0,0,.17,1.78,1.72,1.72,0,0,0,3.23,0,5.74,5.74,0,0,0,.17-1.78A5.75,5.75,0,0,0,108.12,1.66Z"/><path class="cls-1" d="M118.05.2a.09.09,0,0,1,.1-.1h.36a.17.17,0,0,1,.17.1L122,5.69h0V.2a.09.09,0,0,1,.1-.1h.36a.09.09,0,0,1,.1.1V6.69a.09.09,0,0,1-.1.1h-.38a.18.18,0,0,1-.17-.1l-3.3-5.5h0v5.5a.09.09,0,0,1-.1.1h-.36a.09.09,0,0,1-.1-.1Z"/></g></g></svg>
